X: 1
T: Pittenweem
T: 8x32R 3C ()
P: Mac Nichol
R: Hornpipe, reel
C: by Murray Shoolbraid
C: arr. T. Traub 9-28-2016
M: 4/4
L: 1/4
K: D
A,|: "D"DF/A/ d/A/F/D/|"Em"EG/B/ e/B/G/E/|"D"DF/A/ d/A/F/A/|"A7"G/E/A/C/ "D"DA, :|
"A"Ec/B/ A/G/F/E/|"D"Dd/c/ d/A/F/A/|"G"B/A/G/B/ "D"A/G/F/A/|"G"G/E/F/D/ "A7"D/C/B,/A,/|
"D"DD/F/ A/F/D/F/|"G"G/A/B/c/ d/A/F/D/|"G"B,/B/A/G/ "A7"F/E/D/C/|"D"DF D2|]
